assets/images/svg/home.svg

<svg width="17" height="17" viewBox="0 0 17 17" fill="none" xmlns="http://www.w3.org/2000/svg">
<path d="M15.7212 7.2974C15.7208 7.29704 15.7204 7.29655 15.72 7.29619L9.26437 0.839329C8.9892 0.563978 8.62336 0.412415 8.23421 0.412415C7.84506 0.412415 7.47921 0.563978 7.20392 0.839329L0.751635 7.29293C0.749462 7.2951 0.747167 7.2974 0.745115 7.29957C0.180046 7.86803 0.181012 8.79033 0.747892 9.35734C1.00688 9.61651 1.34882 9.7665 1.71455 9.78232C1.72952 9.78377 1.74449 9.78449 1.75958 9.78449H2.01676V14.5362C2.01676 15.4767 2.78178 16.2417 3.72199 16.2417H6.24765C6.50374 16.2417 6.7113 16.034 6.7113 15.778V12.0525C6.7113 11.6234 7.06036 11.2744 7.48935 11.2744H8.97906C9.40805 11.2744 9.75699 11.6234 9.75699 12.0525V15.778C9.75699 16.034 9.96455 16.2417 10.2206 16.2417H12.7463C13.6866 16.2417 14.4515 15.4767 14.4515 14.5362V9.78449H14.6901C15.0791 9.78449 15.445 9.63293 15.7204 9.35746C16.2879 8.78961 16.2881 7.86561 15.7212 7.2974ZM15.0647 8.70169C14.9646 8.80181 14.8315 8.857 14.6901 8.857H13.9879C13.7318 8.857 13.5242 9.0646 13.5242 9.32075V14.5362C13.5242 14.9652 13.1753 15.3142 12.7463 15.3142H10.6843V12.0525C10.6843 11.1121 9.91939 10.3469 8.97906 10.3469H7.48935C6.54902 10.3469 5.78401 11.1121 5.78401 12.0525V15.3142H3.72199C3.29312 15.3142 2.94405 14.9652 2.94405 14.5362V9.32075C2.94405 9.0646 2.7365 8.857 2.48041 8.857H1.79025C1.78301 8.85651 1.77588 8.85615 1.76852 8.85603C1.63039 8.85361 1.50083 8.79879 1.40376 8.70157C1.19729 8.49506 1.19729 8.15896 1.40376 7.95232C1.40388 7.95232 1.40388 7.9522 1.404 7.95208L1.40436 7.95172L7.85979 1.4951C7.95976 1.39498 8.0927 1.33991 8.23421 1.33991C8.3756 1.33991 8.50853 1.39498 8.60863 1.4951L15.0626 7.95039C15.0636 7.95136 15.0647 7.95232 15.0656 7.95329C15.271 8.16016 15.2706 8.49554 15.0647 8.70169Z" fill="#9E9E9E"/>
</svg>

<svg width="17" height="17" fill="none" xmlns="http://www.w3.org/2000/svg"><path d="M15.721 7.297h-.001L9.264.838a1.447 1.447 0 00-1.03-.427c-.389 0-.755.152-1.03.427L.752 7.293A1.46 1.46 0 001.76 9.785h.257v4.751c0 .94.765 1.706 1.705 1.706h2.526a.464.464 0 00.463-.464v-3.726a.78.78 0 01.778-.778h1.49c.43 0 .778.35.778.779v3.725c0 .256.208.464.464.464h2.525c.94 0 1.705-.765 1.705-1.706V9.784h.24a1.46 1.46 0 001.031-2.487zm-.656 1.405c-.1.1-.233.155-.375.155h-.702a.464.464 0 00-.464.464v5.215a.779.779 0 01-.778.778h-2.062v-3.261c0-.94-.765-1.706-1.705-1.706H7.49c-.94 0-1.705.765-1.705 1.706v3.261H3.722a.779.779 0 01-.778-.778V9.321a.464.464 0 00-.464-.464h-.69a.526.526 0 01-.386-.155.53.53 0 010-.75L7.86 1.495a.525.525 0 01.749 0l6.454 6.455.003.003a.531.531 0 01-.001.749z" fill="#9E9E9E"/></svg>
